;Generated by Cura LulzBot Edition GCodeWriter Version: 3.2.27
;FLAVOR:Marlin
;TIME:1286
;Filament used: 1.31308m
;Layer height: 0.39
;Generated with Cura_SteamEngine 3.2.27
M82 ;absolute extrusion mode
;This G-Code has been generated specifically for the LulzBot TAZ 6 with standard extruder
M75 ; start GLCD timer
G26 ; clear potential 'probe fail' condition
G21 ; set units to Millimetres
M107 ; disable fans
M420 S0 ; disable previous leveling matrix
G90 ; absolute positioning
M82 ; set extruder to absolute mode
G92 E0 ; set extruder position to 0
M140 S65 ; start bed heating up
M109 R140 ; soften filament before homing Z
G28 ; Home all axis
G1 E-30 F100 ; retract filament
M109 R140 ; wait for extruder to reach wiping temp
G1 X-15 Y100 F3000 ; move above wiper pad
G1 Z1 ; push nozzle into wiper
G1 X-17 Y95 F1000 ; slow wipe
G1 X-17 Y90 F1000 ; slow wipe
G1 X-17 Y85 F1000 ; slow wipe
G1 X-15 Y90 F1000 ; slow wipe
G1 X-17 Y80 F1000 ; slow wipe
G1 X-15 Y95 F1000 ; slow wipe
G1 X-17 Y75 F2000 ; fast wipe
G1 X-15 Y65 F2000 ; fast wipe
G1 X-17 Y70 F2000 ; fast wipe
G1 X-15 Y60 F2000 ; fast wipe
G1 X-17 Y55 F2000 ; fast wipe
G1 X-15 Y50 F2000 ; fast wipe
G1 X-17 Y40 F2000 ; fast wipe
G1 X-15 Y45 F2000 ; fast wipe
G1 X-17 Y35 F2000 ; fast wipe
G1 X-15 Y40 F2000 ; fast wipe
G1 X-17 Y70 F2000 ; fast wipe
G1 X-15 Y30 Z2 F2000 ; fast wipe
G1 X-17 Y35 F2000 ; fast wipe
G1 X-15 Y25 F2000 ; fast wipe
G1 X-17 Y30 F2000 ; fast wipe
G1 X-15 Y25 Z1.5 F1000 ; slow wipe
G1 X-17 Y23 F1000 ; slow wipe
G1 Z10 ; raise extruder
M109 R140 ; wait for extruder to reach probe temp
G1 X-9 Y-9 ; move above first probe point
M204 S100 ; set probing acceleration
G29 ; start auto-leveling sequence
M420 S1 ; activate bed level matrix
M425 Z			     ; use measured Z backlash for compensation
M425 Z F0		     ; turn off measured Z backlash compensation. (if activated in the quality settings, this command will automatically be ignored)
M204 S500 ; restore standard acceleration
G1 X0 Y0 Z15 F5000 ; move up off last probe point
G4 S1 ; pause
M400 ; wait for moves to finish
M117 Heating... ; progress indicator message on LCD
M109 R200 ; wait for extruder to reach printing temp
M190 S65 ; wait for bed to reach printing temp
G1 Z2 E0 F75 ; prime tiny bit of filament into the nozzle
M117 TAZ 6 Printing... ; progress indicator message on LCD

M221 S100
;LAYER_COUNT:52
;LAYER:0
M107
G0 F2625 X128.474 Y120.705 Z0.424
;TYPE:SKIRT
G1 F900 X128.763 Y120.409 E0.01375
G1 X129.536 Y119.702 E0.04856
G1 X129.878 Y119.424 E0.06321
G1 X131.259 Y118.431 E0.11973
G1 X131.89 Y118.065 E0.14397
G1 X133.666 Y117.254 E0.20886
G1 X134.267 Y117.039 E0.23007
G1 X135.612 Y116.684 E0.2763
G1 X136.141 Y116.585 E0.29418
G1 X137.203 Y116.463 E0.32971
G1 X137.638 Y116.438 E0.34419
G1 X138.736 Y116.44 E0.38067
G1 X139.179 Y116.467 E0.39542
G1 X140.303 Y116.603 E0.43305
G1 X140.848 Y116.71 E0.45151
G1 X142.469 Y117.156 E0.50738
G1 X143.029 Y117.359 E0.52717
G1 X144.704 Y118.122 E0.58834
G1 X145.131 Y118.351 E0.60444
G1 X146.05 Y118.923 E0.64041
G1 X146.324 Y119.112 E0.65147
G1 X147.459 Y119.967 E0.6987
G1 X147.812 Y120.268 E0.71411
G1 X149.398 Y121.804 E0.78749
G1 X149.656 Y122.08 E0.80004
G1 X150.582 Y123.178 E0.84777
G1 X150.792 Y123.453 E0.85927
G1 X152.064 Y125.279 E0.93323
G1 X152.274 Y125.618 E0.94648
G1 X153.486 Y127.826 E1.03018
G1 X153.637 Y128.132 E1.04152
G1 X154.623 Y130.394 E1.12352
G1 X154.731 Y130.672 E1.13343
G1 X155.392 Y132.593 E1.20095
G1 X155.465 Y132.83 E1.20919
G1 X156.037 Y134.935 E1.28168
G1 X156.092 Y135.165 E1.28954
G1 X156.452 Y136.921 E1.3491
G1 X156.499 Y137.209 E1.3588
G1 X156.883 Y140.282 E1.46172
G1 X156.909 Y140.603 E1.47242
G1 X157.005 Y143.108 E1.55573
G1 X157.004 Y143.426 E1.5663
G1 X156.879 Y146.119 E1.65589
G1 X156.849 Y146.446 E1.6668
G1 X156.594 Y148.337 E1.73021
G1 X156.524 Y148.715 E1.74298
G1 X155.855 Y151.491 E1.83788
G1 X155.767 Y151.798 E1.84849
G1 X155.411 Y152.866 E1.8859
G1 X155.305 Y153.146 E1.89585
G1 X154.708 Y154.552 E1.94661
G1 X154.563 Y154.855 E1.95778
G1 X153.866 Y156.158 E2.00688
G1 X153.64 Y156.527 E2.02126
G1 X152.571 Y158.067 E2.08356
G1 X152.313 Y158.398 E2.09751
G1 X151.525 Y159.299 E2.13729
G1 X151.229 Y159.601 E2.15134
G1 X150.469 Y160.294 E2.18552
G1 X150.132 Y160.567 E2.19993
G1 X148.738 Y161.57 E2.257
G1 X148.106 Y161.937 E2.28129
G1 X146.342 Y162.743 E2.34574
G1 X145.743 Y162.957 E2.36688
G1 X144.382 Y163.317 E2.41366
G1 X143.847 Y163.418 E2.43175
G1 X142.792 Y163.538 E2.46704
G1 X142.361 Y163.562 E2.48139
G1 X141.264 Y163.56 E2.51784
G1 X140.679 Y163.513 E2.53734
G1 X138.927 Y163.233 E2.59631
G1 X138.336 Y163.088 E2.61653
G1 X136.772 Y162.568 E2.6713
G1 X136.295 Y162.373 E2.68843
G1 X135.191 Y161.828 E2.72934
G1 X134.87 Y161.649 E2.74156
G1 X133.949 Y161.076 E2.7776
G1 X133.675 Y160.888 E2.78864
G1 X132.542 Y160.035 E2.83577
G1 X132.192 Y159.736 E2.85107
G1 X130.639 Y158.236 E2.92282
G1 X130.374 Y157.952 E2.93573
G1 X129.349 Y156.733 E2.98866
G1 X129.12 Y156.432 E3.00123
G1 X127.787 Y154.476 E3.07989
G1 X127.619 Y154.205 E3.09049
G1 X126.805 Y152.76 E3.1456
G1 X126.648 Y152.448 E3.15721
G1 X125.385 Y149.62 E3.26013
G1 X125.263 Y149.312 E3.27114
G1 X124.614 Y147.427 E3.33739
G1 X124.541 Y147.189 E3.34567
G1 X123.962 Y145.057 E3.41908
G1 X123.908 Y144.829 E3.42687
G1 X123.549 Y143.083 E3.48611
G1 X123.501 Y142.793 E3.49588
G1 X123.117 Y139.718 E3.59886
G1 X123.091 Y139.397 E3.60956
G1 X122.995 Y136.892 E3.69287
G1 X122.996 Y136.573 E3.70347
G1 X123.123 Y133.862 E3.79366
G1 X123.153 Y133.534 E3.80461
G1 X123.407 Y131.656 E3.86758
G1 X123.477 Y131.281 E3.88026
G1 X124.135 Y128.548 E3.97368
G1 X124.258 Y128.142 E3.98778
G1 X124.952 Y126.238 E4.05512
G1 X125.129 Y125.829 E4.06993
G1 X126.09 Y123.929 E4.14069
G1 X126.351 Y123.49 E4.15766
G1 X127.416 Y121.949 E4.21991
G1 X127.681 Y121.61 E4.23421
G1 X128.474 Y120.705 E4.2742
G0 F2625 X128.85 Y121.034
G1 F900 X129.101 Y120.778 E4.28611
G1 X129.874 Y120.071 E4.32093
G1 X130.17 Y119.83 E4.33361
G1 X131.551 Y118.837 E4.39014
G1 X132.098 Y118.52 E4.41115
G1 X133.874 Y117.709 E4.47603
G1 X134.395 Y117.523 E4.49441
G1 X135.74 Y117.168 E4.54064
G1 X136.198 Y117.081 E4.55613
G1 X137.26 Y116.959 E4.59166
G1 X137.637 Y116.938 E4.60421
G1 X138.735 Y116.94 E4.64069
G1 X139.119 Y116.964 E4.65348
G1 X140.243 Y117.1 E4.69111
G1 X140.715 Y117.192 E4.70709
G1 X142.336 Y117.638 E4.76296
G1 X142.821 Y117.814 E4.7801
G1 X144.496 Y118.577 E4.84127
G1 X144.866 Y118.776 E4.85523
G1 X145.785 Y119.348 E4.8912
G1 X146.023 Y119.511 E4.90079
G1 X147.158 Y120.366 E4.94801
G1 X147.464 Y120.627 E4.96138
G1 X149.05 Y122.163 E5.03475
G1 X149.273 Y122.403 E5.04564
G1 X150.199 Y123.501 E5.09337
G1 X150.382 Y123.738 E5.10332
G1 X151.654 Y125.564 E5.17727
G1 X151.836 Y125.858 E5.18876
G1 X153.048 Y128.066 E5.27247
G1 X153.178 Y128.331 E5.28228
G1 X154.164 Y130.593 E5.36428
G1 X154.258 Y130.835 E5.37291
G1 X154.919 Y132.756 E5.44042
G1 X154.982 Y132.961 E5.44755
G1 X155.554 Y135.066 E5.52004
G1 X155.602 Y135.265 E5.52684
G1 X155.962 Y137.021 E5.58641
G1 X156.003 Y137.271 E5.59483
G1 X156.387 Y140.344 E5.69774
G1 X156.41 Y140.623 E5.70705
G1 X156.506 Y143.128 E5.79035
G1 X156.505 Y143.403 E5.79949
G1 X156.38 Y146.096 E5.88908
G1 X156.354 Y146.379 E5.89853
G1 X156.099 Y148.27 E5.96194
G1 X156.038 Y148.597 E5.97299
G1 X155.369 Y151.373 E6.06788
G1 X155.292 Y151.64 E6.07712
G1 X154.936 Y152.708 E6.11453
G1 X154.844 Y152.95 E6.12313
G1 X154.247 Y154.356 E6.1739
G1 X154.122 Y154.619 E6.18357
G1 X153.425 Y155.922 E6.23268
G1 X153.229 Y156.242 E6.24515
G1 X152.16 Y157.782 E6.30745
G1 X151.936 Y158.069 E6.31955
G1 X151.148 Y158.97 E6.35933
G1 X150.892 Y159.232 E6.3715
G1 X150.132 Y159.925 E6.40568
G1 X149.84 Y160.161 E6.41816
G1 X148.446 Y161.164 E6.47523
G1 X147.899 Y161.482 E6.49625
G1 X146.135 Y162.288 E6.5607
G1 X145.615 Y162.474 E6.57906
G1 X144.254 Y162.834 E6.62584
G1 X143.79 Y162.921 E6.64153
G1 X142.735 Y163.041 E6.67681
G1 X142.362 Y163.062 E6.68923
G1 X141.265 Y163.06 E6.72568
G1 X140.758 Y163.019 E6.74259
G1 X139.006 Y162.739 E6.80155
G1 X138.494 Y162.614 E6.81906
G1 X136.93 Y162.094 E6.87384
G1 X136.516 Y161.924 E6.88871
G1 X135.412 Y161.379 E6.92962
G1 X135.134 Y161.225 E6.94019
G1 X134.213 Y160.652 E6.97623
G1 X133.975 Y160.488 E6.98584
G1 X132.842 Y159.635 E7.03297
G1 X132.539 Y159.377 E7.04619
G1 X130.986 Y157.877 E7.11794
G1 X130.757 Y157.631 E7.12911
G1 X129.732 Y156.412 E7.18204
G1 X129.533 Y156.15 E7.19297
G1 X128.2 Y154.194 E7.27164
G1 X128.054 Y153.959 E7.28083
G1 X127.24 Y152.514 E7.33594
G1 X127.104 Y152.244 E7.34599
G1 X125.841 Y149.416 E7.44892
G1 X125.736 Y149.149 E7.45845
G1 X125.087 Y147.264 E7.5247
G1 X125.024 Y147.058 E7.53186
G1 X124.445 Y144.926 E7.60528
G1 X124.398 Y144.729 E7.61201
G1 X124.039 Y142.983 E7.67125
G1 X123.997 Y142.731 E7.67974
G1 X123.613 Y139.656 E7.78272
G1 X123.59 Y139.377 E7.79202
G1 X123.494 Y136.872 E7.87533
G1 X123.496 Y136.596 E7.8845
G1 X123.623 Y133.885 E7.97469
G1 X123.648 Y133.601 E7.98417
G1 X123.902 Y131.723 E8.04714
G1 X123.963 Y131.398 E8.05813
G1 X124.621 Y128.665 E8.15155
G1 X124.728 Y128.313 E8.16378
G1 X125.422 Y126.409 E8.23112
G1 X125.575 Y126.055 E8.24394
G1 X126.536 Y124.155 E8.3147
G1 X126.762 Y123.774 E8.32942
G1 X127.827 Y122.233 E8.39167
G1 X128.057 Y121.939 E8.40407
G1 X128.85 Y121.034 E8.44406
G1 F600 E7.44406
G0 F2625 X133.098 Y120.901
G0 X133.893 Y122.094
G0 X138.664 Y121.931
;TYPE:WALL-INNER
G1 F600 E8.44406
G1 F900 X139.574 Y122.046 E8.47454
G1 X140.45 Y122.262 E8.50453
G1 X141.381 Y122.602 E8.53746
G1 X142.302 Y123.058 E8.57162
G1 X143.237 Y123.645 E8.6083
G1 X144.123 Y124.328 E8.64548
G1 X145.048 Y125.185 E8.68738
G1 X145.935 Y126.157 E8.73111
G1 X146.529 Y126.907 E8.76291
G1 X147.386 Y128.147 E8.813
G1 X148.196 Y129.531 E8.86629
G1 X148.966 Y131.082 E8.92384
G1 X149.625 Y132.68 E8.98128
G1 X150.249 Y134.529 E9.04613
G1 X150.738 Y136.375 E9.10959
G1 X151.079 Y138.061 E9.16676
G1 X151.351 Y139.993 E9.23159
G1 X151.498 Y141.99 E9.29814
G1 X151.514 Y143.91 E9.36194
G1 X151.4 Y145.791 E9.42457
G1 X151.164 Y147.53 E9.48289
G1 X150.813 Y149.177 E9.53885
G1 X150.342 Y150.742 E9.59316
G1 X150.217 Y151.088 E9.60539
G1 X149.641 Y152.432 E9.65398
G1 X148.997 Y153.614 E9.69871
G1 X148.379 Y154.529 E9.73541
G1 X147.618 Y155.443 E9.77493
G1 X147.253 Y155.814 E9.79223
G1 X146.431 Y156.514 E9.82811
G1 X145.617 Y157.055 E9.86059
G1 X144.767 Y157.482 E9.8922
G1 X143.872 Y157.803 E9.92379
G1 X143.118 Y157.977 E9.94951
G1 X142.232 Y158.077 E9.97914
G1 X141.336 Y158.069 E10.00892
G1 X140.43 Y157.955 E10.03926
G1 X139.549 Y157.738 E10.06942
G1 X138.625 Y157.401 E10.1021
G1 X137.701 Y156.944 E10.13636
G1 X136.766 Y156.357 E10.17305
G1 X135.862 Y155.66 E10.21098
G1 X134.987 Y154.852 E10.25056
G1 X134.062 Y153.836 E10.29622
G1 X133.446 Y153.059 E10.32917
G1 X132.613 Y151.853 E10.37788
G1 X131.793 Y150.449 E10.43191
G1 X131.032 Y148.911 E10.48894
G1 X130.358 Y147.27 E10.54789
G1 X129.756 Y145.48 E10.61065
G1 X129.256 Y143.601 E10.67527
G1 X128.921 Y141.939 E10.73161
G1 X128.647 Y139.993 E10.79692
G1 X128.502 Y138.007 E10.86309
G1 X128.486 Y136.091 E10.92677
G1 X128.6 Y134.213 E10.98929
G1 X128.837 Y132.461 E11.04804
G1 X129.19 Y130.818 E11.10389
G1 X129.662 Y129.245 E11.15847
G1 X129.783 Y128.912 E11.17024
G1 X130.359 Y127.569 E11.2188
G1 X131.003 Y126.385 E11.26359
G1 X131.621 Y125.471 E11.30026
G1 X132.382 Y124.558 E11.33976
G1 X132.749 Y124.185 E11.35715
G1 X133.569 Y123.486 E11.39295
G1 X134.38 Y122.947 E11.42531
G1 X135.236 Y122.517 E11.45715
G1 X136.127 Y122.197 E11.48861
G1 X136.881 Y122.023 E11.51432
G1 X137.771 Y121.923 E11.54409
G1 X138.664 Y121.931 E11.57376
G0 F2625 X138.697 Y121.431
G1 F900 X139.663 Y121.553 E11.60612
G1 X140.601 Y121.785 E11.63823
G1 X141.577 Y122.141 E11.67276
G1 X142.551 Y122.624 E11.70889
G1 X143.517 Y123.23 E11.74678
G1 X144.45 Y123.949 E11.78593
G1 X145.399 Y124.828 E11.82891
G1 X146.316 Y125.833 E11.87413
G1 X146.929 Y126.607 E11.90694
G1 X147.809 Y127.88 E11.95836
G1 X148.638 Y129.296 E12.01289
G1 X149.421 Y130.875 E12.07146
G1 X150.095 Y132.51 E12.13023
G1 X150.725 Y134.376 E12.19568
G1 X151.226 Y136.265 E12.26063
G1 X151.572 Y137.977 E12.31867
G1 X151.849 Y139.946 E12.38475
G1 X151.998 Y141.964 E12.45199
G1 X152.014 Y143.921 E12.51703
G1 X151.898 Y145.835 E12.58075
G1 X151.656 Y147.621 E12.64065
G1 X151.297 Y149.304 E12.69784
G1 X150.819 Y150.893 E12.75298
G1 X150.677 Y151.285 E12.76684
G1 X150.094 Y152.645 E12.81601
G1 X149.425 Y153.874 E12.86251
G1 X148.779 Y154.83 E12.90085
G1 X147.988 Y155.78 E12.94193
G1 X147.592 Y156.182 E12.96069
G1 X146.735 Y156.912 E12.9981
G1 X145.867 Y157.489 E13.03273
G1 X144.961 Y157.944 E13.06643
G1 X144.019 Y158.282 E13.09969
G1 X143.199 Y158.471 E13.12765
G1 X142.259 Y158.577 E13.15909
G1 X141.304 Y158.569 E13.19082
G1 X140.341 Y158.448 E13.22308
G1 X139.399 Y158.216 E13.25532
G1 X138.429 Y157.862 E13.28963
G1 X137.452 Y157.378 E13.32587
G1 X136.486 Y156.772 E13.36376
G1 X135.541 Y156.044 E13.4034
G1 X134.625 Y155.198 E13.44484
G1 X133.681 Y154.161 E13.49144
G1 X133.054 Y153.37 E13.52499
G1 X132.187 Y152.115 E13.57568
G1 X131.353 Y150.688 E13.6306
G1 X130.579 Y149.123 E13.68862
G1 X129.887 Y147.439 E13.74913
G1 X129.277 Y145.624 E13.81276
G1 X128.769 Y143.715 E13.87841
G1 X128.428 Y142.023 E13.93577
G1 X128.149 Y140.04 E14.00231
G1 X128.002 Y138.033 E14.06919
G1 X127.986 Y136.08 E14.13409
G1 X128.103 Y134.156 E14.19815
G1 X128.343 Y132.379 E14.25774
G1 X128.705 Y130.693 E14.31505
G1 X129.183 Y129.101 E14.37028
G1 X129.323 Y128.715 E14.38393
G1 X129.906 Y127.356 E14.43307
G1 X130.575 Y126.125 E14.47963
G1 X131.221 Y125.17 E14.51795
G1 X132.012 Y124.221 E14.559
G1 X132.409 Y123.817 E14.57783
G1 X133.265 Y123.088 E14.61519
G1 X134.13 Y122.513 E14.64971
G1 X135.042 Y122.055 E14.68362
G1 X135.98 Y121.718 E14.71674
G1 X136.8 Y121.529 E14.74471
G1 X137.744 Y121.423 E14.77628
G1 X138.697 Y121.431 E14.80795
G0 F2625 X138.73 Y120.931
G1 F900 X139.752 Y121.06 E14.84218
G1 X140.755 Y121.308 E14.87652
G1 X141.77 Y121.679 E14.91243
G1 X142.795 Y122.187 E14.95045
G1 X143.802 Y122.818 E14.98994
G1 X144.777 Y123.57 E15.03086
G1 X145.75 Y124.471 E15.07493
G1 X146.697 Y125.509 E15.12162
G1 X147.329 Y126.307 E15.15545
G1 X148.232 Y127.613 E15.20821
G1 X149.08 Y129.061 E15.26398
G1 X149.874 Y130.663 E15.3234
G1 X150.569 Y132.35 E15.38403
G1 X151.201 Y134.223 E15.44972
G1 X151.714 Y136.155 E15.51615
G1 X152.065 Y137.891 E15.57501
G1 X152.348 Y139.909 E15.64273
G1 X152.498 Y141.938 E15.71034
G1 X152.514 Y143.932 E15.7766
G1 X152.396 Y145.879 E15.84143
G1 X152.147 Y147.717 E15.90306
G1 X151.781 Y149.431 E15.96131
G1 X151.296 Y151.043 E16.01725
G1 X151.144 Y151.464 E16.03212
G1 X150.542 Y152.867 E16.08286
G1 X149.853 Y154.134 E16.13079
G1 X149.179 Y155.131 E16.17078
G1 X148.358 Y156.117 E16.21342
G1 X147.931 Y156.55 E16.23363
G1 X147.039 Y157.31 E16.27257
G1 X146.114 Y157.925 E16.30949
G1 X145.159 Y158.405 E16.34501
G1 X144.166 Y158.761 E16.38006
G1 X143.28 Y158.965 E16.41028
G1 X142.286 Y159.077 E16.44352
G1 X141.272 Y159.069 E16.47722
G1 X140.252 Y158.941 E16.51138
G1 X139.248 Y158.693 E16.54575
G1 X138.233 Y158.323 E16.58165
G1 X137.208 Y157.815 E16.61966
G1 X136.201 Y157.184 E16.65916
G1 X135.22 Y156.428 E16.70031
G1 X134.263 Y155.544 E16.74361
G1 X133.3 Y154.486 E16.79115
G1 X132.662 Y153.681 E16.82529
G1 X131.761 Y152.377 E16.87796
G1 X130.913 Y150.927 E16.93378
G1 X130.12 Y149.323 E16.99324
G1 X129.421 Y147.621 E17.05439
G1 X128.798 Y145.769 E17.11932
G1 X128.282 Y143.829 E17.18603
G1 X127.935 Y142.109 E17.24435
G1 X127.651 Y140.084 E17.3123
G1 X127.502 Y138.059 E17.37978
